!!!!SEGMENT: pl-kk--kk-i-480--004_wiltberger-august--missa-benedictus.krn
!!!cenid: 18xx:1438
!!!COM: Wiltberger, August
!!!COM-rismid: pe327522
!!!CDT: 1850/04/17-1928/12/02
!!!CNT: German
!!!OPR: Missa
!!!OTL: Benedictus
!!!OMV: 004
!!!PDT:
!!!AGN: Sacred; Mass
!!!SMS-siglum: PL-Kk
!!!SMS-shelfmark: Kk.I.480
!!!SMS-shelfwork: 001-004 M
!!!SMS-variant: Tenor I PL-Kk Kk.I.480:0008; Tenor II PL-Kk Kk.I.480:0013; Bas I PL-Kk Kk.I.480:0018; Bas II PL-Kk Kk.I.480:0023
!!!SMS-altvar: partytura PL-Kk Kk.I.480:0003
!!!NIFC-rismid: 1001140257
!!!URL-scan: http://repozytorium.nifc.pl/skany/pl-kk-nut--i-480
!!!ONB-nifc: UWAGA: na podstawie głosów. Proszę uzupełnić pola !!!SMS dot. partytury i głosów. Uwaga: części mszy: 1. Kyrie, 2. Gloria, 3. Sanctus, 4. Benedictus, 5. Agnus
!!!AIN: 2 empty 2 tenor
!!!key:
**kern	**text	**text	**dynam	**kern	**text	**text	**dynam	**kern	**text	**dynam	**kern	**text	**text	**dynam
*part4	*part4	*part4	*part4	*part3	*part3	*part3	*part3	*part2	*part2	*part2	*part1	*part1	*part1	*part1
*staff4	*staff4	*staff4	*	*staff3	*staff3	*staff3	*	*staff2	*staff2	*	*staff1	*staff1	*staff1	*
*Iempty	*	*	*	*Iempty	*	*	*	*Itenor	*	*	*Itenor	*	*	*
*I"Bas II	*	*	*	*I"Bas I	*	*	*	*I"Tenor II	*	*	*I"Tenor I	*	*	*
*I'B 2	*	*	*	*I'B 1	*	*	*	*I'T 2	*	*	*I'T 1	*	*	*
*clefF4	*	*	*	*clefF4	*	*	*	*clefG2	*	*	*clefG2	*	*	*
*k[b-]	*	*	*	*k[b-]	*	*	*	*k[b-]	*	*	*k[b-]	*	*	*
*F:	*	*	*	*F:	*	*	*	*F:	*	*	*F:	*	*	*
*M4/4	*	*	*	*M4/4	*	*	*	*M4/4	*	*	*M4/4	*	*	*
*met(c)	*	*	*	*met(c)	*	*	*	*met(c)	*	*	*met(c)	*	*	*
=1	=1	=1	=1	=1	=1	=1	=1	=1	=1	=1	=1	=1	=1	=1
!LO:TX:a:t=solo	!	!	!LO:DY:a:rj	!LO:TX:a:t=solo	!	!	!LO:DY:a:rj	!LO:TX:a:t=solo	!	!LO:DY:a:rj	!LO:TX:a:t=solo	!	!	!LO:DY:a:rj
2F\	Be-	.	p	2F\	Be-	.	p	2a/	Be-	p	2cc\	Be-	.	p
2F\	-ne-	.	.	2F\	-ne-	.	.	2a/	-ne-	.	2cc\	-ne-	.	.
=2	=2	=2	=2	=2	=2	=2	=2	=2	=2	=2	=2	=2	=2	=2
1F	-di-	.	.	1A	-dic-	.	.	1cc	-di-	.	1ff	-di-	.	.
=3	=3	=3	=3	=3	=3	=3	=3	=3	=3	=3	=3	=3	=3	=3
!	!	!	!	!	!	!	!	!	!	!	!LO:TX:t=P:global:problem=oddech ' zaznaczany znakiem ˅	!	!	!
2C,/	-ctus,	.	.	2G,\	-tus,	.	.	2cc,\	-ctus	.	2ee,\	-ctus,	.	.
2C/	qui	.	.	2E\	qui	.	.	(<4g/	qui	.	2cc\	qui	.	.
.	.	.	.	.	.	.	.	4a/)	.	.	.	.	.	.
=4	=4	=4	=4	=4	=4	=4	=4	=4	=4	=4	=4	=4	=4	=4
1BB-	ve-	.	.	1F	ve-	.	.	1b-	ve-	.	1dd	ve-	.	.
=5	=5	=5	=5	=5	=5	=5	=5	=5	=5	=5	=5	=5	=5	=5
2FF/	-nit	.	.	2F,\	-nit	.	.	2a,/	-nit	.	2cc,\	-nit	.	.
2FF/	in	.	.	2C/	in	.	.	2f/	in	.	2a/	in	.	.
=6	=6	=6	=6	=6	=6	=6	=6	=6	=6	=6	=6	=6	=6	=6
!	!	!	!	!	!	!	!	!	!	!LO:HP:a	!	!	!	!LO:HP:a
2BB-/	no-	.	.	2D\	no-	.	.	2f/	no-	<	2.b-\	no-	.	<
!	!	!	!	!	!	!	!	!	!	!LO:HP:a	!	!	!	!
2GG/	-mi-	.	.	2C/	-mi-	.	.	2e/	-mi-	[ >	.	.	.	[
!	!	!	!	!	!	!	!	!	!	!	!	!	!	!LO:HP:a
.	.	.	.	.	.	.	.	.	.	]]	4b-\	-mi-	.	> ]]
!	!	!	!	!	!	!	!	!LO:LB:g=original	!	!	!LO:LB:g=original	!	!	!
=7	=7	=7	=7	=7	=7	=7	=7	=7	=7	=7	=7	=7	=7	=7
!	!	!	!	!	!	!	!	!	!	!LO:HP:a	!	!	!	!
4FF/	-ne	.	.	4C/	-ne,	.	.	4f,/	-ne	<	4a,/	-ne	.	.
(<4FF/	Do-	.	.	(>8F\L	Do-	.	.	(<4a/	Do-	.	2cc\	Do-	.	.
.	.	.	.	8E\J)	.	.	.	.	.	[	.	.	.	.
!LO:LB:g=original	!	!	!	!LO:LB:g=original	!	!	!	!	!	!	!	!	!	!
!	!	!	!	!	!	!	!	!	!	!LO:HP:a	!	!	!	!
4GG/)	.	.	.	4D\	.	.	.	4g/)	.	>	.	.	.	.
4GG/	-mi-	.	.	4D\	-mi-	.	.	4g/	-mi-	.	4bn\	-mi-	.	.
=8	=8	=8	=8	=8	=8	=8	=8	=8	=8	=8	=8	=8	=8	=8
.	.	.	.	.	.	.	.	.	.	]	.	.	.	.
1C	-ni	.	.	1E	-ni.	.	.	1g	-ni	.	1cc	-ni	.	.
=9	=9	=9	=9	=9	=9	=9	=9	=9	=9	=9	=9	=9	=9	=9
!	!	!	!	!	!	!	!	!	!	!LO:HP:a	!LO:TX:a:t=2.	!	!	!
!	!	!	!	!	!	!	!	!	!	!	!LO:TX:a:t=P:problem=jedna pauza wielotaktowa	!	!	!
2C/	Be-	.	.	2E\	Be-	.	.	2g/	Be-	<	1r	.	.	.
2C/	-ne-	.	.	2E\	-ne-	.	.	2a/	-ne-	.	.	.	.	.
=10	=10	=10	=10	=10	=10	=10	=10	=10	=10	=10	=10	=10	=10	=10
(>2D\	-di-	.	.	(>2F\	-dic-	.	.	1b-	-di-	[[	1r	.	.	.
2E\)	.	.	.	2G\)	.	.	.	.	.	.	.	.	.	.
=11	=11	=11	=11	=11	=11	=11	=11	=11	=11	=11	=11	=11	=11	=11
2F,\	-ctus,	.	.	2A,\	-tus,	.	.	2a/	-ctus	.	2cc\	Be-	.	.
4F\	Be-	.	.	4A\	be-	.	.	2r	.	.	2dd\	-ne-	.	.
4F\	-ne-	.	.	4A\	-ne-	.	.	.	.	.	.	.	.	.
=12	=12	=12	=12	=12	=12	=12	=12	=12	=12	=12	=12	=12	=12	=12
1C	-di-	.	.	1G	-dic-	.	.	2r	.	.	1ee-X	-di-	.	.
.	.	.	.	.	.	.	.	2cc\	qui	.	.	.	.	.
=13	=13	=13	=13	=13	=13	=13	=13	=13	=13	=13	=13	=13	=13	=13
2G\	-ctus,	.	.	2G,\	-tus,	.	.	1b-	ve-	.	2dd,\	-ctus,	.	.
2En\	qui	.	.	2G\	qui	.	.	.	.	.	2cc\	qui	.	.
!LO:LB:g=original	!	!	!	!LO:LB:g=original	!	!	!	!LO:LB:g=original	!	!	!LO:LB:g=original	!	!	!
=14	=14	=14	=14	=14	=14	=14	=14	=14	=14	=14	=14	=14	=14	=14
2F\	ve-	.	.	2F\	ve-	.	.	2.a,/	-nit	.	2cc\	ve-	.	.
4F,\	-nit	.	.	4F\	-nit	.	.	.	.	.	4cc,\	-nit	.	.
4BB-/	in	.	.	4F\	in	.	.	4b-\	in	.	4dd\	in	.	.
=15	=15	=15	=15	=15	=15	=15	=15	=15	=15	=15	=15	=15	=15	=15
4D\	no-	.	.	4D\	no-	.	.	4f/	no-	.	4.b-\	no-	.	.
4GG/	-mi-	.	.	4C/	-mi-	.	.	4e/	-mi-	.	.	.	.	.
.	.	.	.	.	.	.	.	.	.	.	8b-\	-mi-	.	.
2FF/	-ne	.	.	2C/	-ne,	.	.	2f/	-ne	.	4a/	-ne	.	.
.	.	.	.	.	.	.	.	.	.	.	[<4a/	Do-	.	.
=16	=16	=16	=16	=16	=16	=16	=16	=16	=16	=16	=16	=16	=16	=16
!LO:N:vis=2	!	!	!	!	!	!	!	!	!	!	!	!	!	!
!LO:TX:t=P:problem=późniejsze zmiany rytmu	!	!	!	!	!	!	!	!	!	!	!	!	!	!
2.C/	Do-	.	.	2C/	Do-	.	.	(<4f/	Do-	.	4a/]	.	.	.
.	.	.	.	.	.	.	.	8e/L	.	.	8g/L	.	.	.
.	.	.	.	.	.	.	.	8d/J	.	.	8f/J	.	.	.
!	!	!	!	!	!	!	!	!LO:TX:t=P:problem=późniejsze poprawki tekstu ołówkiem	!	!	!LO:TX:t=P:problem=późniejsze poprawki tekstu ołówkiem	!	!	!
.	.	.	.	4C	.	.	.	4e/)	.	.	4g/	.	.	.
!LO:TX:t=P:problem=późniejsze poprawki tekstu ołówkiem	!	!	!	!	!	!	!	!	!	!	!	!	!	!
4C/	-mi-	.	.	4C/	-mi-	.	.	4e/	-mi-	.	4g/	-mi-	.	.
=17||	=17||	=17||	=17||	=17||	=17||	=17||	=17||	=17||	=17||	=17||	=17||	=17||	=17||	=17||
*M3/4	*	*	*	*M3/4	*	*	*	*M3/4	*	*	*M3/4	*	*	*
*	*	*	*	*	*	*	*	*	*	*	*^	*	*	*
*	*	*	*	*	*	*	*	*	*	*	*	*	*^	*	*
*	*	*	*	*	*	*	*	*	*^	*	*	*	*	*	*	*
!	!	!	!	!LO:TX:t=P:problem=późniejsze poprawki tekstu ołówkiem	!	!	!LO:DY:a	!	!	!	!	!LO:TX:i:a:t=chór	!	!	!	!	!
4F\	-ni	Ho-	.	4F\	-ni	Ho-	.	4f/	-ni	Ho-	.	4cc/	4a\	-ni	Ho-	.	.
!LO:TX:a:t=P:problem=oznaczenie dynamiczne na pięciolinii przed nutą	!	!	!LO:DY:a:rj	!	!	!	!LO:DY:a:rj	!	!	!	!	!	!	!	!	!	!
4F\	.	-san-	f	4F\	.	-san-	f	4a/	.	-san-	.	4cc\	4ryy	.	-san-	.	.
4F\	.	-na	.	4F\	.	-na	.	4a/	.	-na	.	4cc\	4ryy	.	-na	.	.
*	*	*	*	*	*	*	*	*	*v	*v	*	*	*	*	*	*	*
*	*	*	*	*	*	*	*	*	*	*	*	*	*v	*v	*	*
*	*	*	*	*	*	*	*	*	*	*	*v	*v	*	*	*
!	!	!	!	!	!	!	!	!	!	!	!LO:LB:g=original	!	!	!
=18	=18	=18	=18	=18	=18	=18	=18	=18	=18	=18	=18	=18	=18	=18
(>4F\	.	in	.	(>4F\	.	in	.	(<4a/	in	.	2cc\	.	in	.
4E\)	.	.	.	4E\)	.	.	.	4g/)	.	.	.	.	.	.
4D\	.	ex-	.	4F\	.	ex-	.	4bn\	ex-	.	4dd\	.	ex-	.
!LO:LB:g=original	!	!	!	!LO:LB:g=original	!	!	!	!LO:LB:g=original	!	!	!	!	!	!
=19	=19	=19	=19	=19	=19	=19	=19	=19	=19	=19	=19	=19	=19	=19
2C/	.	-coel-	.	2G\	.	-cel-	.	2cc\	-cel-	.	2ee\	.	-cel-	.
4C/	.	-sis,	.	4G\	.	-sis,	.	4cc\	-sis,	.	4ee\	.	-sis,	.
=20	=20	=20	=20	=20	=20	=20	=20	=20	=20	=20	=20	=20	=20	=20
4D\	.	ho-	.	4F\	.	ho-	.	4a/	ho-	.	4ff\	.	Ho-	.
4BB-/	.	-san-	.	4.B-\	.	-san-	.	4dd\	-san-	.	4ff\	.	-san-	.
4BB-/	.	-na	.	.	.	.	.	4dd\	-na	.	4ff\	.	-na	.
.	.	.	.	8A\	.	-na	.	.	.	.	.	.	.	.
=21	=21	=21	=21	=21	=21	=21	=21	=21	=21	=21	=21	=21	=21	=21
2BB-/	.	in	.	2G\	.	in	.	2cc\	in	.	2ee\	.	in	.
4AA/	.	ex-	.	4F\	.	ex-	.	4cc\	ex-	.	4ff\	.	ex-	.
=22	=22	=22	=22	=22	=22	=22	=22	=22	=22	=22	=22	=22	=22	=22
!	!	!	!	!	!	!	!	!LO:TX:i:a:t=riten.	!	!	!	!	!	!
(<4BB-/	.	-coel-	.	4F\	.	-cel-	.	2.b-\	-cel-	.	(>2dd\	.	-cel-	.
2GG/)	.	.	.	4G\	.	.	.	.	.	.	.	.	.	.
.	.	.	.	4B-\	.	.	.	.	.	.	4ee\)	.	.	.
=23	=23	=23	=23	=23	=23	=23	=23	=23	=23	=23	=23	=23	=23	=23
!	!	!	!	!LO:N:vis=2	!	!	!	!LO:N:vis=2	!	!	!LO:N:vis=1	!	!	!
2.FF/	.	-sis.	.	2.F\ 2.c	.	-sis.	.	2.a/	-sis.	.	2.ff\	.	-sis.	.
==	==	==	==	==	==	==	==	==	==	==	==	==	==	==
*-	*-	*-	*-	*-	*-	*-	*-	*-	*-	*-	*-	*-	*-	*-
!!!system-decoration: [(s1,s2,s3,s4)]
!!!RDF**kern: > = above
!!!RDF**kern: < = below
!!!EED: Mateusz Mrugas
!!!EEV: 2021-01-31
!!!ENC: Mateusz Solarz
!!!END: 2021-01-26
